X:129
T:Simple Simon. (p)1657.PLFD.130
T:Huddle-duddle. (p)1657.PLFD.130
M:C
L:1/8
Q:1/2=70
S:Playford, Dancing Master,3rd Ed.,1657
O:England
H:1657.
Z:Chris Partington.
K:G
G>G G>G G3 (A/B/)|c>d e>c A3B|c>c c>c c2G2|c>d e>f g2 f(e/f/)|
g>G G>G G3(A/B/)|c>d e>c A3B|(G<E) (G<E) (G<E) (G<E)|G2A>Bc4:|
